X: 11614
T: Ehhhh
R: jig
M: 6/8
K: Dmajor
|:D|FAd agf|edc A2 A|BGc dAF|DGF E2 D|FAd agf|edc A2 A|BGc dAF|DFE D2:|
|:A|BGc dcB|AGF DFA|EGB FAd|fed FEA|BGc dAF|Adf gfd|ABG AFG|EFE D2:|

